FRONT/src/assets/navbar/board.svg

<svg xmlns="http://www.w3.org/2000/svg" height="24px" viewBox="0 0 24 24" width="24px" fill="#000000"><path d="M0 0h24v24H0V0z" fill="none"/><path d="M7 15h7v2H7zm0-4h10v2H7zm0-4h10v2H7zm12-4h-4.18C14.4 1.84 13.3 1 12 1c-1.3 0-2.4.84-2.82 2H5c-.14 0-.27.01-.4.04-.39.08-.74.28-1.01.55-.18.18-.33.4-.43.64-.1.23-.16.49-.16.77v14c0 .27.06.54.16.78s.25.45.43.64c.27.27.62.47 1.01.55.13.02.26.03.4.03h14c1.1 0 2-.9 2-2V5c0-1.1-.9-2-2-2zm-7-.25c.41 0 .75.34.75.75s-.34.75-.75.75-.75-.34-.75-.75.34-.75.75-.75zM19 19H5V5h14v14z"/></svg>

<svg width="24" height="24" viewBox="0 0 24 24" fill="none" xmlns="http://www.w3.org/2000/svg">
<path d="M7 15H14V17H7V15ZM7 11H17V13H7V11ZM7 7H17V9H7V7ZM19 3H14.82C14.4 1.84 13.3 1 12 1C10.7 1 9.6 1.84 9.18 3H5C4.86 3 4.73 3.01 4.6 3.04C4.21 3.12 3.86 3.32 3.59 3.59C3.41 3.77 3.26 3.99 3.16 4.23C3.06 4.46 3 4.72 3 5V19C3 19.27 3.06 19.54 3.16 19.78C3.26 20.02 3.41 20.23 3.59 20.42C3.86 20.69 4.21 20.89 4.6 20.97C4.73 20.99 4.86 21 5 21H19C20.1 21 21 20.1 21 19V5C21 3.9 20.1 3 19 3ZM12 2.75C12.41 2.75 12.75 3.09 12.75 3.5C12.75 3.91 12.41 4.25 12 4.25C11.59 4.25 11.25 3.91 11.25 3.5C11.25 3.09 11.59 2.75 12 2.75ZM19 19H5V5H19V19Z" fill="white"/>
</svg>
